X:333
T: WENN DER SCHNEE VON DEN ALPEN
N: E1485
O: Europa, Mitteleuropa, Oesterreich, Steiermark
R: Staende -, Hirten -, Alpen - Lied
M: 3/4
L: 1/16
K: A
E2F2 | E4A2A2A2A2 | d3dG4
E3F | E3GG2G2F2E2 | c3cA4
E2F2G2 | A3Bc2B2A2G2 | d2c2A2
A2G2F2 | E3ee2e2d2G2 | A4z4
E2F2G2 | A4C2E2A2c2 | d3cd3cB4
d3cd3cB4 | c3Bc3BA4
C2E2A2c2e2c2 | f3ed3cB2z
A | G2B2d2f2E2zG | A4a2z2

